!!!COM: Beethoven
!!!OTL: 6 Variationen uber "Nel cor piu non mi sento" von G. Paisiello
!!!Variation: Variation 3 c
**function	**harm	**kern	**kern
*	*	*clefF4	*clefG2
*	*	*k[f#]	*k[f#]
*M6/8	*M6/8	*M6/8	*M6/8
*G:	*G:	*G:	*G:
8T	V	8d	r
=69	=69	=69	=69
4.P	Vb/ii	4G#	r
.	.	.	16eLL
.	.	.	16g#
.	.	.	16bJ
.	.	r	8eeJ
4.P	V7d/ii	4d	r
.	.	.	16eeLL
.	.	.	16gg#
.	.	.	16bbJ
.	.	r	8eeeJ
=70	=70	=70	=70
4.P	iib	4c	r
.	.	.	16eeLL
.	.	.	16aa
.	.	.	16cccJ
.	.	r	8eeeJ
4.P	ii	r	4.ee 4.aa 4.ccc 4.eee
.	.	16AALL	.
.	.	16C	.
.	.	16EJ	.
.	.	8AJ	.
=71	=71	=71	=71
4.D	Vb	4F#	r
.	.	.	16dLL
.	.	.	16f#
.	.	.	16aJ
.	.	r	8ddJ
4.D	V7d	4c	r
.	.	.	16ddLL
.	.	.	16ff#
.	.	.	16aaJ
.	.	r	8dddJ
=72	=72	=72	=72
4.D	Ib	4B	r
.	.	.	16ddLL
.	.	.	16gg
.	.	.	16bbJ
.	.	r	8dddJ
4.D	I	r	4.dd 4.gg 4.bb 4.ddd
.	.	16GGLL	.
.	.	16BB	.
.	.	16DJ	.
.	.	8GJ	.
=73	=73	=73	=73
2.D	viiob/V	4E	r
.	.	.	16GLL
.	.	.	16c#
.	.	.	16eJ
.	.	r	8gJ
.	.	4E	r
.	.	.	16gLL
.	.	.	16cc#
.	.	.	16eeJ
.	.	r	8ggJ
=74	=74	=74	=74
2.D	V	4D	r
.	.	.	16ff#LL
.	.	.	16gg
.	.	r	16aa
.	.	.	16ff#JJ
.	.	r	4dd;
.	.	r	8dd
=75	=75	=75	=75
4.D	V7b	r	4.a 4.cc 4.dd
.	.	16FF#LL	.
.	.	16AA	.
.	.	16DJ	.
.	.	8F#J	.
4.D	I	r	4.g 4.b 4.dd
.	.	16GGLL	.
.	.	16BB	.
.	.	16DJ	.
.	.	8GJ	.
=76	=76	=76	=76
2.T	V	r	4f# 4a 4dd
.	.	16DDLL	.
.	.	16FF#	.
.	.	16AAJ	.
.	.	8DJ	r
.	.	4D	r
.	.	.	16dLL
.	.	.	16f#
.	.	.	16aJ
.	.	r	8ddJ
*-	*-	*-	*-
